overrides/.icons/wp/whip.svg

<?xml version="1.0" encoding="UTF-8" standalone="no"?>
<svg
   width="24"
   height="24"
   version="1.1"
   viewBox="0 0 24 24"
   id="svg1"
   sodipodi:docname="whip.svg"
   inkscape:version="1.3.2 (091e20e, 2023-11-25, custom)"
   xmlns:inkscape="http://www.inkscape.org/namespaces/inkscape"
   xmlns:sodipodi="http://sodipodi.sourceforge.net/DTD/sodipodi-0.dtd"
   xmlns="http://www.w3.org/2000/svg"
   xmlns:svg="http://www.w3.org/2000/svg">
  <defs
     id="defs1" />
  <sodipodi:namedview
     id="namedview1"
     pagecolor="#ffffff"
     bordercolor="#111111"
     borderopacity="1"
     inkscape:showpageshadow="0"
     inkscape:pageopacity="0"
     inkscape:pagecheckerboard="1"
     inkscape:deskcolor="#d1d1d1"
     inkscape:zoom="9.0625"
     inkscape:cx="10.427586"
     inkscape:cy="12.965517"
     inkscape:window-width="1366"
     inkscape:window-height="697"
     inkscape:window-x="-8"
     inkscape:window-y="-8"
     inkscape:window-maximized="1"
     inkscape:current-layer="svg1" />
  <path
     d="M 16.393911,3.7999211 C 15.396055,3.5206426 14.355249,3.3927038 13.33503,3.4296121 11.904346,3.4404092 10.572631,3.8828692 9.2766211,4.3558353 7.9284989,4.9994581 6.6117399,5.7858369 5.7259579,6.9432749 4.8428149,7.9631201 4.1663952,9.1415388 3.6680696,10.36869 3.4280963,10.957631 3.2191945,11.543177 3.0292427,12.092917 l 1.8286975,0.489997 c 0.025263,0.0067 0.049475,0.01552 0.073945,0.02386 C 5.0646531,12.186977 5.2084698,11.751932 5.361525,11.363429 5.9343307,9.8053836 6.7607234,8.2873463 8.0063721,7.1169923 8.7953529,6.4990121 9.6531926,5.9086183 10.647705,5.5897351 c 2.116847,-0.9173224 4.740234,-0.8997501 6.894126,0.1488975 0.992312,0.4060316 1.787348,1.100597 2.489526,1.8579856 0.917722,1.2676615 1.625034,2.7307818 1.693707,4.2479338 0.1913,2.474558 -1.236538,4.847016 -3.386892,6.167471 -1.263124,0.81648 -3.018511,1.177662 -4.517495,0.552924 -1.861759,-0.684813 -3.470217,-2.09356 -4.1216324,-3.868116 -0.6572899,-1.41028 -0.1491233,-2.984338 0.7324034,-4.137542 0.769208,-0.8721809 1.911284,-1.5268636 3.166096,-1.5633717 1.382005,-0.091781 2.803297,0.782642 3.301365,2.0117287 0.320047,1.015948 0.08952,2.495653 -0.543292,3.574948 -0.431416,0.728279 -1.247964,1.313366 -2.208704,1.199425 -1.105429,-0.103828 -1.62779,-1.339074 -1.299274,-2.205175 0.523149,-1.350408 1.883298,-2.228302 3.208849,-2.843766 -1.136483,0.298775 -2.081657,1.017719 -2.835007,1.829639 -0.792313,0.805904 -1.016019,2.265775 -0.02842,3.090753 0.662987,0.579051 1.634428,0.449566 2.332379,0.084 1.331906,-0.87924 1.944351,-2.38102 1.848651,-3.995946 -0.02963,-1.074988 -0.90817,-2.3747923 -2.12433,-2.8699444 C 13.616895,8.1566282 11.676053,8.6754339 10.45338,9.7409899 9.1116566,10.910508 8.3428551,12.761853 8.8837018,14.502256 9.407337,16.44981 10.96113,18.11035 12.872256,19.04368 c 1.332609,0.749567 2.959897,0.917135 4.398353,0.509607 0.487736,-0.138643 0.937686,-0.355562 1.386361,-0.571182 1.604589,-0.866862 2.894882,-2.222028 3.664314,-3.789927 0.781697,-1.603948 0.860804,-3.464861 0.377669,-5.2046837 C 22.285478,8.7031027 21.691839,7.4330278 20.733719,6.4003647 19.601769,5.1516336 18.057433,4.265096 16.394437,3.7996549 Z M 2.8126734,12.861876 c -0.2136774,-0.05725 -0.4317931,0.06868 -0.4890473,0.282351 l -0.03381,0.126182 c -0.053188,0.1985 0.05188,0.400381 0.238339,0.47403 l -1.4938932,5.575285 c -0.14269211,0.532536 0.1733438,1.079926 0.7058789,1.222618 0.5325353,0.142693 1.0799259,-0.173344 1.2226185,-0.705878 l 1.4938926,-5.575285 c 0.1981667,0.02923 0.3898857,-0.09309 0.4430377,-0.291456 l 0.03381,-0.126181 c 0.057255,-0.213678 -0.068676,-0.431794 -0.2823513,-0.489048 l -1.2689706,-0.34002 z"
     id="path1"
     style="stroke-width:0.999999" />
</svg>

<?xml version="1.0" encoding="UTF-8"?>
<svg id="svg1" width="24" height="24" version="1.1" viewBox="0 0 24 24" xmlns="http://www.w3.org/2000/svg">
 <path id="path1" d="m16.394 3.7999c-0.99786-0.27928-2.0387-0.40722-3.0589-0.37031-1.4307 0.010797-2.7624 0.45326-4.0584 0.92622-1.3481 0.64362-2.6649 1.43-3.5507 2.5874-0.88314 1.0198-1.5596 2.1983-2.0579 3.4254-0.23997 0.58894-0.44888 1.1745-0.63883 1.7242l1.8287 0.49c0.025263 0.0067 0.049475 0.01552 0.073945 0.02386 0.13277-0.4198 0.27658-0.85484 0.42964-1.2433 0.57281-1.558 1.3992-3.0761 2.6448-4.2464 0.78898-0.61798 1.6468-1.2084 2.6413-1.5273 2.1168-0.91732 4.7402-0.89975 6.8941 0.1489 0.99231 0.40603 1.7873 1.1006 2.4895 1.858 0.91772 1.2677 1.625 2.7308 1.6937 4.2479 0.1913 2.4746-1.2365 4.847-3.3869 6.1675-1.2631 0.81648-3.0185 1.1777-4.5175 0.55292-1.8618-0.68481-3.4702-2.0936-4.1216-3.8681-0.65729-1.4103-0.14912-2.9843 0.7324-4.1375 0.76921-0.87218 1.9113-1.5269 3.1661-1.5634 1.382-0.091781 2.8033 0.78264 3.3014 2.0117 0.32005 1.0159 0.08952 2.4957-0.54329 3.5749-0.43142 0.72828-1.248 1.3134-2.2087 1.1994-1.1054-0.10383-1.6278-1.3391-1.2993-2.2052 0.52315-1.3504 1.8833-2.2283 3.2088-2.8438-1.1365 0.29878-2.0817 1.0177-2.835 1.8296-0.79231 0.8059-1.016 2.2658-0.02842 3.0908 0.66299 0.57905 1.6344 0.44957 2.3324 0.084 1.3319-0.87924 1.9444-2.381 1.8487-3.9959-0.02963-1.075-0.90817-2.3748-2.1243-2.8699-1.6329-0.71495-3.5737-0.19615-4.7964 0.86941-1.3417 1.1695-2.1105 3.0209-1.5697 4.7613 0.52364 1.9476 2.0774 3.6081 3.9886 4.5414 1.3326 0.74957 2.9599 0.91714 4.3984 0.50961 0.48774-0.13864 0.93769-0.35556 1.3864-0.57118 1.6046-0.86686 2.8949-2.222 3.6643-3.7899 0.7817-1.6039 0.8608-3.4649 0.37767-5.2047-0.41348-1.2844-1.0071-2.5545-1.9652-3.5871-1.132-1.2487-2.6763-2.1353-4.3393-2.6007zm-13.581 9.062c-0.21368-0.05725-0.43179 0.06868-0.48905 0.28235l-0.03381 0.12618c-0.053188 0.1985 0.05188 0.40038 0.23834 0.47403l-1.4939 5.5753c-0.14269 0.53254 0.17334 1.0799 0.70588 1.2226 0.53254 0.14269 1.0799-0.17334 1.2226-0.70588l1.4939-5.5753c0.19817 0.02923 0.38989-0.09309 0.44304-0.29146l0.03381-0.12618c0.057255-0.21368-0.068676-0.43179-0.28235-0.48905l-1.269-0.34002z"/>
</svg>
